!!!SOCIAL_FUNCTION:	love songs
!!!PDT:	1913
!!!OTL: No_105_Go_With_Me.krn
!!!REG: Great_Lakes
!!!LANG: Non-Tone
!!!LING_GROUP: Algonquin
**kern
*staff1
*clefF4
*k[b-]
*M3/4
4c\
=1
2c\
8d\L
8c\J
=2
2c\
(16Bn\LL
16B-\
16A\
16A-\JJ)
=3||
*M2/4
4G\
8F\L
8F\J
=4
[2F\
=5
4F\]
4G\
=6||
*M3/4
2G\
8c\L
8G\J
=7
2G\
(16G\LL
16F\
16E\
16E-\JJ)
=8||
*M2/4
4D\
8C/L
8C/J
=9||
*M3/4
2C/
4C/
=10
2F\
8c\L
8G\J
=11
2G\
(16G\LL
16F\
16E\
16E-\JJ)
=12||
*M2/4
4D\
8C/L
8C/J
=13
[2C/
=14
4C/]
8c\L
8G\J
=15
8c\L
8A\J
8A\L
8G\J
=16||
*M3/4
4c\
4G\
8F\L
8F\J
=17
2F\
4G\
=18
2F\
8c\L
8G\J
=19
2G\
(16G\LL
16F\
16E\
16E-\JJ)
=20||
*M2/4
4D\
8C/L
8C/J
=21
2C/
==
*-
